X: 735
T: Junmien yijia
L: 1/8
M: 2/4
K: G
G G F E [I:setbarnb 1]| 
G DD2 | 
G F E G | 
A4 | 
d e c B | 
dA2B | 
d G F E | 
d4 |]

@@@ Tune index: 9609
